Obsidian-SemiLight/actions/24s/view-split-top-bottom.svg

<svg viewBox="0 0 24 24" xmlns="http://www.w3.org/2000/svg"><path d="m4 4v7 1h1 4 1 9 1v-1-7zm1 4h4v3h-4zm5 0h9v3h-9zm-6 6v1 5h16v-5-1zm1 1h4v4h-4zm5 0h9v4h-9z" fill="#4d4d4d"/></svg>

<svg xmlns="http://www.w3.org/2000/svg" viewBox="0 0 24 24">
  <defs id="defs3051">
    <style type="text/css" id="current-color-scheme">
      .ColorScheme-Text {
        color:#4d4d4d;
      }
      </style>
  </defs>
 <path style="fill:currentColor;fill-opacity:1;stroke:none" 
     d="M 4 4 L 4 11 L 4 12 L 5 12 L 9 12 L 10 12 L 19 12 L 20 12 L 20 11 L 20 4 L 4 4 z M 5 8 L 9 8 L 9 11 L 5 11 L 5 8 z M 10 8 L 19 8 L 19 11 L 10 11 L 10 8 z M 4 14 L 4 15 L 4 20 L 20 20 L 20 15 L 20 14 L 4 14 z M 5 15 L 9 15 L 9 19 L 5 19 L 5 15 z M 10 15 L 19 15 L 19 19 L 10 19 L 10 15 z "
     class="ColorScheme-Text"
     />
</svg>
